src/assets/Person.svg

<svg fill="none" height="16" viewBox="0 0 12 16" width="12" xmlns="http://www.w3.org/2000/svg"><g fill="#fff"><path clip-rule="evenodd" d="m10.5002 4.5c0 2.5-1.50002 5-4.50002 5s-4.5-2.5-4.5-5c0-2 1.5-4.5 4.5-4.5s4.50002 2.5 4.50002 4.5zm-1.50002 0c0 .97034-.29426 1.87291-.7963 2.50046-.47153.58942-1.1692.99954-2.2037.99954s-1.73216-.41012-2.20369-.99954c-.50204-.62755-.79631-1.53012-.79631-2.50046 0-1.39683 1.03703-3 3-3 1.96298 0 3 1.60317 3 3z" fill-rule="evenodd"/><path d="m11.9338 15.2538c-.4323-2.4075-2.92422-4.2538-5.93361-4.2538-3.0094 0-5.501325 1.8463-5.9336342 4.2538-.07320902.4077.2694162.7462.6836292.7462.414215 0 .742395-.3419.858825-.7394.42125-1.4382 2.03904-2.7606 4.39118-2.7606 2.35213 0 3.96992 1.3224 4.39121 2.7606.1164.3975.4446.7394.8588.7394s.7568-.3385.6836-.7462z"/></g></svg>

<svg width="12" height="16" viewBox="0 0 12 16" fill="none" xmlns="http://www.w3.org/2000/svg">
<path fill-rule="evenodd" clip-rule="evenodd" d="M10.5002 4.5C10.5002 7 9.00018 9.5 6.00018 9.5C3.00018 9.5 1.50018 7 1.50018 4.5C1.50018 2.5 3.00018 0 6.00018 0C9.00018 0 10.5002 2.5 10.5002 4.5ZM9.00018 4.5C9.00018 5.47034 8.70592 6.37291 8.20388 7.00046C7.73235 7.58988 7.03468 8 6.00018 8C4.96568 8 4.26802 7.58988 3.79649 7.00046C3.29445 6.37291 3.00018 5.47034 3.00018 4.5C3.00018 3.10317 4.03721 1.5 6.00018 1.5C7.96316 1.5 9.00018 3.10317 9.00018 4.5Z" fill="white"/>
<path d="M11.9338 15.2538C11.5015 12.8463 9.00958 11 6.00019 11C2.99079 11 0.498865 12.8463 0.0665558 15.2538C-0.00665322 15.6615 0.335972 16 0.750185 16C1.1644 16 1.49258 15.6581 1.60901 15.2606C2.03026 13.8224 3.64805 12.5 6.00019 12.5C8.35232 12.5 9.97011 13.8224 10.3914 15.2606C10.5078 15.6581 10.836 16 11.2502 16C11.6644 16 12.007 15.6615 11.9338 15.2538Z" fill="white"/>
</svg>
